X:1
T:Seniores populi
T:Ingegneri edit BMarble
T:Seniores populi
T:Copyright © 2016 by The Choral Public Domain Library. Edition may be freely distributed, duplicated, performed or recorded.
T:Copyright © 2016 by The Choral Public Domain Library. Edition may be freely distributed, duplicated, performed or recorded.
T:Copyright © 2016 by The Choral Public Domain Library. Edition may be freely distributed, duplicated, performed or recorded.
C:Ingegneri
C:edit BMarble
Z:Copyright © 2016 by The Choral Public Domain Library. Edition may be freely distributed, duplicated, performed or recorded.
%%score [ 1 2 3 4 ]
L:1/8
Q:1/2=88
M:4/2
K:Eb
V:1 treble nm="Soprano" snm="S."
V:2 treble nm="Alto" snm="A."
V:3 treble-8 transpose=-12 nm="Tenor" snm="T."
V:4 bass nm="Baritone" snm="Bar."
V:1
"^Nr. 9 of Nine Responsories for Holy Thursday:" G8 G4 G4- | G4 G4 A6 A2 | G8 B8 | c12 B4 | A8 G8 | %5
w: Se- ni- o-|* res po- pu-|li con-|si- li-|um fe-|
 (E8 A8) | G16 ||S G8 A8- | A8 G8 | G8 A4 G4 | A8 =A8- | A8 B8 | B4 c8 c4 | F16 | G4 A8 G4 | %15
w: ce- *|runt.|Ut Je-|* sum|do- lo te-|ne- rent,|_ et|oc- ci- de-|rent:|cum gla- di-|
 A4 G4 B6 B2 | B4 =A8 B4 | c8 B4 c4- | c4 _A4 B8 | G8 F8 | F16!fine! |] z16 | z16 | z16 | z16 | %25
w: is et fu- sti-|bus ex- i-|e- runt tam-|* quam ad|la- tro-|nem.|||||
 z16 | z16 | z16 | z16 |] %29
w: ||||
V:2
 E8 E4 E4- | E4 E4 C6 D2 | E8 F8 | A12 G4 | F8 E4 E4- | E2 D2 C4 F8 | B,16 || E8 E8- | E8 E8 | %9
w: Se- ni- o-|* res po- pu-|li con-|si- li-|um fe- ce-||runt.|Ut Je-|* sum|
 =E8 F4 E4 | F8 ^F8- | F8 G8 | G4 E8 E4 | D16 | E4 E8 E4 | E4 E4 F6 F2 | F4 F8 F4 | A8 G4 E4- | %18
w: do- lo te-|ne- rent,|_ et|oc- ci- de-|rent:|cum gla- di-|is et fu- sti-|bus ex- i-|e- runt tam-|
 E4 F4 D8 | E8 C8 | D16 |] z16 | B,12 A,4 | G,8 F,8 | B,8 A,6 A,2 | G,4 G,4 C8 | B,8 E8 | %27
w: * quam ad|la- tro-|nem.||Col- le-|ge- runt|pon- te- fi-|ces et pha-|ri- sae-|
 D4 D4 C6 C2 | D16 |] %29
w: i con- ci- li-|um.|
V:3
 B8 B4 B4- | B4 c4 A6 A2 | B8 d8 | e12 e4 | c8 B8 | c2 d2 e8 d4 | e16 || B8 c8- | c8 B8 | %9
w: Se- ni- o-|* res po- pu-|li con-|si- li-|um fe-|ce- * * *|runt.|Ut Je-|* sum|
 c8 c4 c4 | c8 d8- | d8 d8 | G4 G8 =A4 | B16 | B4 c8 B4 | c4 e4 d6 d2 | d4 c8 d4 | e8 e8 | %18
w: do- lo te-|ne- rent,|_ et|oc- ci- de-|rent:|cum gla- di-|is et fu- sti-|bus ex- i-|e- runt|
 c8 B4 B4 | c4 (B6 =AG A4) | B16 |] B12 _A4 | G8 F8 | B8 A6 A2 | G4 G4 c8 | B8 e8 | d4 d8 c4- | %27
w: tam- quam ad|la- tro- * * *|nem.|Col- le-|ge- runt|pon- te- fi-|ces et pha-|ri- sae-|i con- ci-|
 c2 B2 B8 =A4 | B16 |] %29
w: * * * li-|um.|
V:4
 E,8 E,4 E,4- | E,4 C,4 F,6 F,2 | E,8 B,8 | A,12 E,4 | F,8 G,8 | A,6 G,2 F,8 | E,16 || E,8 A,8- | %8
w: Se- ni- o-|* res po- pu-|li con-|si- li-|um fe-|ce- * *|runt.|Ut Je-|
 A,8 E,8 | C,8 F,4 C,4 | F,8 D,8- | D,8 G,8 | E,4 C,8 C,4 | B,,16 | E,4 A,8 E,4 | A,4 C4 B,6 B,2 | %16
w: * sum|do- lo te-|ne- rent,|_ et|oc- ci- de-|rent:|cum gla- di-|is et fu- sti-|
 B,4 F,8 B,4 | A,8 E,4 A,4- | A,4 F,4 G,8 | E,8 F,8 | B,,16 |] z16 | z16 | z16 | z16 | z16 | z16 | %27
w: bus ex- i-|e- runt tam-|* quam ad|la- tro-|nem.|||||||
 z16 | z16 |] %29
w: ||

